src/lib/packages/icons/src/assets/line/minimize.svg

<svg width="24" height="24" viewBox="0 0 24 24" fill="none" xmlns="http://www.w3.org/2000/svg">
<path d="M14.3081 9.28713C14.2701 9.19513 14.25 9.09802 14.25 9.00002V5.00002C14.25 4.58602 14.586 4.25002 15 4.25002C15.414 4.25002 15.75 4.58602 15.75 5.00002V7.18899L20.47 2.46902C20.763 2.17602 21.238 2.17602 21.531 2.46902C21.824 2.76202 21.824 3.23705 21.531 3.53005L16.8111 8.25002H19C19.414 8.25002 19.75 8.58602 19.75 9.00002C19.75 9.41402 19.414 9.75002 19 9.75002H15C14.902 9.75002 14.8049 9.72992 14.7129 9.69192C14.5299 9.61592 14.3841 9.47013 14.3081 9.28713ZM9.00002 4.25002C8.58602 4.25002 8.25002 4.58602 8.25002 5.00002V7.18899L3.53005 2.46902C3.23705 2.17602 2.76202 2.17602 2.46902 2.46902C2.17602 2.76202 2.17602 3.23705 2.46902 3.53005L7.18899 8.25002H5.00002C4.58602 8.25002 4.25002 8.58602 4.25002 9.00002C4.25002 9.41402 4.58602 9.75002 5.00002 9.75002H9.00002C9.09802 9.75002 9.19513 9.72992 9.28713 9.69192C9.47013 9.61592 9.61592 9.47013 9.69192 9.28713C9.72992 9.19513 9.75002 9.09802 9.75002 9.00002V5.00002C9.75002 4.58602 9.41402 4.25002 9.00002 4.25002ZM16.8111 15.75H19C19.414 15.75 19.75 15.414 19.75 15C19.75 14.586 19.414 14.25 19 14.25H15C14.902 14.25 14.8049 14.2701 14.7129 14.3081C14.5299 14.3841 14.3839 14.5301 14.3069 14.7141C14.2689 14.8061 14.249 14.903 14.249 15.001V19.001C14.249 19.415 14.585 19.751 14.999 19.751C15.413 19.751 15.749 19.415 15.749 19.001V16.812L20.469 21.532C20.615 21.678 20.807 21.752 20.999 21.752C21.191 21.752 21.3831 21.679 21.5291 21.532C21.8221 21.239 21.8221 20.764 21.5291 20.471L16.8111 15.75ZM9.28713 14.3081C9.19513 14.2701 9.09802 14.25 9.00002 14.25H5.00002C4.58602 14.25 4.25002 14.586 4.25002 15C4.25002 15.414 4.58602 15.75 5.00002 15.75H7.18899L2.46902 20.47C2.17602 20.763 2.17602 21.238 2.46902 21.531C2.61502 21.677 2.80705 21.751 2.99905 21.751C3.19105 21.751 3.38308 21.678 3.52908 21.531L8.24905 16.8111V19C8.24905 19.414 8.58505 19.75 8.99905 19.75C9.41305 19.75 9.74905 19.414 9.74905 19V15C9.74905 14.902 9.72894 14.8049 9.69094 14.7129C9.61594 14.5299 9.47013 14.3841 9.28713 14.3081Z" fill="currentColor"/>
</svg>

<svg xmlns="http://www.w3.org/2000/svg" width="24" height="24" fill="none"><path fill="currentColor" d="M14.308 9.287A.751.751 0 0 1 14.25 9V5a.75.75 0 0 1 1.5 0v2.189l4.72-4.72a.75.75 0 1 1 1.061 1.061l-4.72 4.72H19a.75.75 0 0 1 0 1.5h-4a.751.751 0 0 1-.692-.463ZM9 4.25a.75.75 0 0 0-.75.75v2.189l-4.72-4.72A.75.75 0 1 0 2.469 3.53l4.72 4.72H5a.75.75 0 0 0 0 1.5h4A.751.751 0 0 0 9.75 9V5A.75.75 0 0 0 9 4.25Zm7.811 11.5H19a.75.75 0 0 0 0-1.5h-4a.751.751 0 0 0-.751.751v4a.75.75 0 0 0 1.5 0v-2.189l4.72 4.72a.748.748 0 0 0 1.06 0 .75.75 0 0 0 0-1.061l-4.718-4.721Zm-7.524-1.442A.751.751 0 0 0 9 14.25H5a.75.75 0 0 0 0 1.5h2.189l-4.72 4.72a.75.75 0 0 0 1.06 1.061l4.72-4.72V19a.75.75 0 0 0 1.5 0v-4a.751.751 0 0 0-.462-.692Z"/></svg>
